X: 9
T: Inisheer
R: waltz
M: 3/4
L: 1/8
K: Gmaj
|: DG A | B3 A Bd | B3 A Bd | E3 B AB | D3 D GA |
B3 A Bd | B3 A Bd | G3 B AF | G3 :|
A Bd | e3 f ed | B3 A Bd | ef ed Bd | e3 B Bd |
e3 f ed | B3 A Bd | G3 B AF | G3 A Bd |
e3 f ed | B3 A Bd | gf ed Bd | e3 B Bd |
e3 f ed | B3 A Bd | G3 B AF | G3 |]


Tune 211	Setting 211

